html/assets/images/dynamic/business-enabler-9.svg

<svg width="72" height="69" viewBox="0 0 72 69" fill="none" xmlns="http://www.w3.org/2000/svg">
<path d="M28.6724 50.1907L32.8159 35.5667H22.9854L41.1191 14.4432L37.5606 29.0672H47.4074L28.6724 50.1907Z" stroke="#00999A" stroke-width="2" stroke-linecap="round" stroke-linejoin="round"/>
<path d="M49.4056 59.6961C49.4056 59.6961 60.1786 62.2472 66.7756 54.9352C72.8364 48.2082 67.3931 40.4413 71.0003 32.6743C58.8137 35.2091 49.3244 42.4236 48.252 54.334" stroke="#00999A" stroke-width="2" stroke-linecap="round" stroke-linejoin="round"/>
<path d="M24.2358 3.28026C26.137 20.5365 10.7168 22.2426 1 20.569C7.85701 14.5082 7.01207 0.371723 17.6713 1.02168" stroke="#00999A" stroke-width="2" stroke-linecap="round" stroke-linejoin="round"/>
<path d="M67.3929 61.2074L69.8952 65.0259C66.4992 65.2859 47.1956 71.6229 45.8145 61.3374" stroke="#00999A" stroke-width="2" stroke-linecap="round" stroke-linejoin="round"/>
<path d="M62.6483 45.836C57.6274 56.1053 47.0819 63.1898 34.8953 63.1898C17.8502 63.1898 4.02246 49.362 4.02246 32.317C4.02246 30.8383 4.11995 29.3922 4.33119 27.9623" stroke="#00999A" stroke-width="2" stroke-linecap="round" stroke-linejoin="round"/>
<path d="M12.0645 11.5346C17.719 5.32758 25.8435 1.44409 34.8941 1.44409C50.2492 1.44409 62.9721 12.6396 65.3606 27.3123" stroke="#00999A" stroke-width="2" stroke-linecap="round" stroke-linejoin="round"/>
</svg>

<svg width="72" height="69" fill="none" xmlns="http://www.w3.org/2000/svg"><path d="M28.672 50.19l4.144-14.623h-9.83l18.133-21.124-3.558 14.624h9.846L28.672 50.191zm20.734 9.506s10.773 2.551 17.37-4.76c6.06-6.728.617-14.495 4.224-22.262-12.186 2.535-21.676 9.75-22.748 21.66M24.236 3.28C26.137 20.536 10.716 22.243 1 20.57 7.857 14.509 7.012.372 17.671 1.022m49.722 60.185l2.502 3.819c-3.396.26-22.7 6.597-24.08-3.689" stroke="#00999A" stroke-width="2" stroke-linecap="round" stroke-linejoin="round"/><path d="M62.648 45.836c-5.02 10.27-15.566 17.354-27.753 17.354-17.045 0-30.873-13.828-30.873-30.873a29.6 29.6 0 01.31-4.355m7.733-16.427c5.654-6.207 13.778-10.09 22.83-10.09 15.354 0 28.077 11.195 30.466 25.867" stroke="#00999A" stroke-width="2" stroke-linecap="round" stroke-linejoin="round"/></svg>
